!! 00000] TT[WS
!!!OTL: Tan meizi
!!!ARE: Asia, China, Shanxi Qinyuan
!! Ethnic Group: Han
!! WII, 116 (1)
!!!SCT: J0577
!!!YEM: Copyright 1995, estate of Helmut Schaffrath.
**kern
*ICvox
*Ivox
*M2/4
*k[f#]
*G:
{4dd
8b
8a
=1
4dd
8b
8a
=2
8g
4g
8b
=3
2a}
=4
{4dd
8b
8a
=5
4dd
8b
8a
=6
8g
4g
8b
=7
2a}
=8
{8b
8a
8b
8g
=9
4a
4g}
==
!!!AGN: Xiaodiao. Qingge, Sichun
!!!ONB: ESAC (Essen Associative Code) Database: CHINA
!!!AMT: simple duple
!!!AIN: vox
!!!EED: Helmut Schaffrath
!!!EEV: 1.0
*-
